X:1
T:Marsch aus "Ezio"
T:Marsch aus "Ezio"
T:Johann Adolf Hasse
C:Johann Adolf Hasse
%%score { 1 | 2 | 3 | 4 }
L:1/8
Q:1/2=138
M:2/2
K:F
V:1 treble nm="Klavier" snm="Klav."
V:2 treble 
V:3 bass 
V:4 bass 
V:1
"^festlich (~69)"!f! F2 F>F F2 F2 | (F3 G) (G3 F/G/) | A2 G>A B>A G>F |!>(! c6!>)! z2 | %4
!p! F2 F>F F2 F2 | (F3 G) (G3 F/G/) | A2 G>A B>A G>F |!<(! c6!<)! z2 |!f! c2 c>c c>c B>A | %9
 (B3 c d2) _e2 | d2 G>A (A3 G) |!>(! G6!>)! z2 |!mf! B2 B>B B>B A>G | (A3 B c2) d2 | %14
 c2 F>G (G3 F) | (F>G A>B!<(! c>)c d>e!<)! |!f! f2 f>e d2 d>c | %17
!>(! =B2 B>A !breath!G2!>)!!mf! G>F | E>D E>F G2 A2 | (A4 !breath!G2) A2 | G2 (c4 =B2) | %21
 c2!<(! c>c c>c!<)! c>c |!>(! c6!>)! z2 :: z8 | z8 | z8 | z8 | z8 | z8 | z8 | z8 | %31
!mf! G2 G>G G>G F>E | (F3 G A2) B2 | A2 D>E (E3 D) |!>(! D4!>)! z4 |!p! F2 F>F F>F E>D | %36
 (E3 F G2) A2 | G2 C>D D3 C |!>(! !breath!C4!>)!!mf! c4 |!<(! B>A B>c A>G A>B!<)! | %40
!>(! (A2 !breath!G2)!>)!!p! c4 |!<(! B>A B>c A>G A>B | A>G G>A B>c d>e!<)! |!f! f2 f>f e>d c>B | %44
 A>G A>B c2 d2 |!>(! (d2 c4)!>)! z2 | z4 z2!f! d2 | c2 F>G (G3 F) | F6 z2 :| %49
V:2
!f! C2 C>C C2 C2 | C4 (E3 D/E/) | F4 F4 |!>(! E6!>)! z2 |!p! C2 C>C C2 C2 | C4 (E3 D/E/) | F4 F4 | %7
!<(! E6!<)! z2 |!f! ^F2 F>F F2 G>F | (G3 A B2) G2 | G2 (G4 ^F2) |!>(! D6!>)! z2 | %12
!mf! E2 E>E E2 F>E | (F3 G A2) F2 | F2 D2 F2 E2 | !breath!C4!<(! G4!<)! |!f! F2 G2 A4 | %17
!>(! !breath!G6!>)!!mf! D2 | C2 C>D E2 F2 | (F4 !breath!E2) F2 | G2 F>E F2 D2 | %21
 E2!<(! E>E E>E E>E!<)! |!>(! E6!>)! z2 ::!f! C2 C>C C2 C2 | (C3 D) (D3 C/D/) | E2 D>E F>E D>C | %26
!>(! G4!>)! z4 |!p! C2 C>C C2 C2 | (C3 D) (D3 C/D/) | E2 D>E F>E D>C |!<(! G4!<)! z4 | %31
!mf! ^C2 C>C C2 D>C | (D3 E F2) G2 | D2 (D4 ^C2) |!>(! A,4!>)! z4 |!p! =B,2 B,>B, B,2 C>B, | %36
 (C3 D E2) F2 | (C6 =B,2) |!>(! !breath!C4!>)!!mf! A4 |!<(! G>F G>A F>E F>G!<)! | %40
!>(! (F2 !breath!E2)!>)!!p! A4 |!<(! G>F G>A F>E F>G | F>E E>F G2 G2!<)! |!f! F4 G2 E2 | %44
 F>E F>G A2 B2 |!>(! (B2 !breath!A4)!>)!!mf! B,2 |!>(! (B,2 !breath!A,4)!>)!!f! F2 | F2 D2 F2 E2 | %48
 C6 z2 :| %49
V:3
!f! A,2 A,>A, A,2 A,2 | F,2 A,2 C4 | C4 B,4 |!>(! G,6!>)! z2 |!p! F,2 A,>A, A,2 A,2 | F,2 A,2 C4 | %6
 C4 B,4 |!<(! G,6!<)! z2 |!f! A,2 A,>A, A,>A, D2 | D2 D4 C2 | D2 C2 _E2 D2 | %11
 !breath!B,2 D>C!>(! B,>A, G,>F,!>)! |!mf! G,2 G,>G, G,>G, C2 | C2 C4 B,2 | C2 A,2 D2 C2 | %15
 !breath!A,4!<(! C4!<)! |!f! A,2 G,2 D4 |!>(! D2- D>C !breath!D2!>)!!mf! =B,2 | C2 G,>G, C2 C2 | %19
 !breath!C6 C2 | C2 C2 A,2 G,2 | G,2!<(! G,>G, G,>G, G,>G,!<)! |!>(! G,6!>)! z2 :: %23
!f! E,2 E,2 G,2 E,2 | G,2 G,2 (C2 =B,2) | C2 G,2 F,2 C2 | !breath!=B,2 B,>C!>(! B,>A, G,>F,!>)! | %27
!p! G,2 G,>G, G,2 E,2 | G,2 G,2 (C2 =B,2) | C2 G,2 C2 C2 | !breath!=B,2 B,>A,!<(! G,>F, E,>D,!<)! | %31
!mf! E,2 E,>E, E,>E, F,>G, | A,4 D2 D2 | A,2 B,2 B,2 A,2 | !breath!F,2 A,>G,!>(! F,>E, D,>C,!>)! | %35
!p! D,2 D,>D, D,>D, E,>F, | G,4 C2 C2 | G,2 F,2 A,2 G,2 |!>(! E,2 E,2!>)! z2!mf! C,>C, | %39
!<(! C6 C2!<)! |!>(! C2 C2!>)! z2!p! C>C |!<(! C6 C2 | C4 G,>A, B,>C!<)! |!f! C4 B,2 B,2 | %44
 C2 C2 F2 F2 |!>(! !breath!F6!>)!!mf! D2 |!>(! (D2 !breath!C4)!>)!!f! B,2 | C2 A,2 D2 C2 | %48
 A,6 z2 :| %49
V:4
!f! F,2 F,,2 A,,2 C,2 | A,,2 F,,2 C,2 C,2 | (F,2 E,2 D,2) D,2 | %3
 !breath!C,2 C,>D,!>(! C,>B,, A,,>G,,!>)! |!p! A,,2 F,,2 A,,2 C,2 | A,,2 F,,2 C,2 C,2 | %6
 (F,2 E,2 D,2) D,2 | !breath!C,2 C>B,!<(! A,>G,^F,>E,!<)! |!f! D,2 D,2 D,2 D,2 | G,2 G,,2 G,2 C,2 | %10
 B,,2 _E,2 C,2 D,2 | !breath!G,2 B,>A,!>(! G,>F, E,>D,!>)! |!mf! C,2 C,2 C,2 C,2 | %13
 F,2 F,,2 F,2 B,,2 | A,,2 D,2 B,,2 C,2 | !breath!F,4!<(! E,4!<)! |!f! D,2 E,2 F,2 ^F,2 | %17
!>(! G,2 A,2 !breath!=B,2!>)!!mf! G,2 | C,2 C,>C, C,2 F,2 | C,2 C,>C, !breath!C,2 F,2 | %20
 E,2 A,,2 F,,2 G,,2 | C,2!<(! C,>C, C,>C, C,>C,!<)! |!>(! C,2 G,,2 C,2!>)! z2 :: %23
!f! C,2 C,2 E,2 G,2 | E,2 C,2 G,2 G,,2 | (C,2 =B,,2 A,,2) A,,2 | %26
 !breath!G,,2 G,>A,!>(! G,>F, E,>D,!>)! |!p! E,2 C,2 E,2 G,2 | E,2 C,2 G,2 G,,2 | %29
 (C,2 =B,,2 A,,2) A,,2 | !breath!G,,2 G,>F,!<(! E,>D, ^C,>=B,,!<)! |!mf! A,,2 A,,2 A,,2 A,,2 | %32
 D,2 D,2 D,2 G,,2 | F,,2 B,,2 G,,2 A,,2 | !breath!D,2 F,>E,!>(! D,>C, =B,,>A,,!>)! | %35
!p! G,,2 G,,2 G,,2 G,,2 | C,2 C,2 C,2 F,2 | E,2 A,,2 F,,2 G,,2 |!>(! C,2 C,2!>)! z2!mf! C>C | %39
!<(! C,2 C,2 C,2 C,2!<)! |!>(! C,2 C,2!>)! z2!p! C,>C, |!<(! C,2 C,2 C,2 C,2 | %42
 C,2 C,2 C,2 B,,2!<)! |!f! A,,4 G,,4 | F,,2 F,2 F,,2 B,,2 | %45
!>(! F,2 F,,>F,, !breath!F,,2!>)!!mf! B,,2 |!>(! F,2 F,,>F,, !breath!F,,2!>)!!f! B,,2 | %47
 A,,2 D,2 B,,2 C,2 | F,,2 C,2 F,,2 z2 :| %49

